packages/acesdp3/luts/linear_to_sRGB.spi1d
Version 1
From 0.00000000000 1.00000000000
Length 4096
Components 1
{
 0.00000000000
 0.00315506716
 0.00631013431
 0.00946520147
 0.01262026862
 0.01577533578
 0.01893040293
 0.02208547009
 0.02524053724
 0.02839560440
 0.03155067155
 0.03470573871
 0.03786080586
 0.04100408856
 0.04401477698
 0.04690246509
 0.04967990621
 0.05235782787
 0.05494535247
 0.05745031228
 0.05987948949
 0.06223880189
 0.06453344855
 0.06676802546
 0.06894661848
 0.07107287858
 0.07315008357
 0.07518118900
 0.07716887047
 0.07911555914
 0.08102347165
 0.08289463550
 0.08473091074
 0.08653400856
 0.08830550730
 0.09004686635
 0.09175943825
 0.09344447922
 0.09510315844
 0.09673656618
 0.09834572100
 0.09993157615
 0.10149502522
 0.10303690721
 0.10455801103
 0.10605907957
 0.10754081335
 0.10900387378
 0.11044888613
 0.11187644223
 0.11328710286
 0.11468140001
 0.11605983887
 0.11742289967
 0.11877103934
 0.12010469310
 0.12142427578
 0.12273018323
 0.12402279340
 0.12530246752
 0.12656955106
 0.12782437469
 0.12906725514
 0.13029849602
 0.13151838852
 0.13272721215
 0.13392523535
 0.13511271610
 0.13628990246
 0.13745703315
 0.13861433793
 0.13976203816
 0.14090034715
 0.14202947062
 0.14314960700
 0.14426094784
 0.14536367813
 0.14645797656
 0.14754401587
 0.14862196310
 0.14969197986
 0.15075422252
 0.15180884251
 0.15285598651
 0.15389579664
 0.15492841066
 0.15595396217
 0.15697258075
 0.15798439217
 0.15898951850
 0.15998807829
 0.16098018669
 0.16196595559
 0.16294549377
 0.16391890696
 0.16488629803
 0.16584776704
 0.16680341137
 0.16775332581
 0.16869760266
 0.16963633183
 0.17056960091
 0.17149749524
 0.17242009802
 0.17333749037
 0.17424975139
 0.17515695825
 0.17605918623
 0.17695650882
 0.17784899773
 0.17873672300
 0.17961975301
 0.18049815456
 0.18137199292
 0.18224133187
 0.18310623373
 0.18396675944
 0.18482296859
 0.18567491945
 0.18652266902
 0.18736627305
 0.18820578613
 0.18904126164
 0.18987275188
 0.19070030801
 0.19152398016
 0.19234381740
 0.19315986783
 0.19397217853
 0.19478079568
 0.19558576449
 0.19638712931
 0.19718493360
 0.19797921998
 0.19877003023
 0.19955740534
 0.20034138551
 0.20112201018
 0.20189931806
 0.20267334711
 0.20344413460
 0.20421171713
 0.20497613061
 0.20573741030
 0.20649559083
 0.20725070620
 0.20800278983
 0.20875187452
 0.20949799251
 0.21024117548
 0.21098145456
 0.21171886034
 0.21245342289
 0.21318517177
 0.21391413605
 0.21464034429
 0.21536382461
 0.21608460463
 0.21680271154
 0.21751817207
 0.21823101254
 0.21894125882
 0.21964893638
 0.22035407028
 0.22105668518
 0.22175680536
 0.22245445473
 0.22314965679
 0.22384243473
 0.22453281134
 0.22522080908
 0.22590645007
 0.22658975610
 0.22727074862
 0.22794944878
 0.22862587739
 0.22930005498
 0.22997200177
 0.23064173767
 0.23130928232
 0.23197465507
 0.23263787500
 0.23329896090
 0.23395793132
 0.23461480452
 0.23526959853
 0.23592233112
 0.23657301980
 0.23722168185
 0.23786833431
 0.23851299400
 0.23915567749
 0.23979640115
 0.24043518110
 0.24107203328
 0.24170697339
 0.24234001693
 0.24297117921
 0.24360047531
 0.24422792015
 0.24485352843
 0.24547731466
 0.24609929318
 0.24671947815
 0.24733788352
 0.24795452309
 0.24856941048
 0.24918255914
 0.24979398235
 0.25040369322
 0.25101170471
 0.25161802962
 0.25222268058
 0.25282567008
 0.25342701045
 0.25402671388
 0.25462479240
 0.25522125791
 0.25581612217
 0.25640939679
 0.25700109324
 0.25759122287
 0.25817979689
 0.25876682638
 0.25935232229
 0.25993629545
 0.26051875656
 0.26109971620
 0.26167918483
 0.26225717279
 0.26283369030
 0.26340874748
 0.26398235432
 0.26455452071
 0.26512525642
 0.26569457112
 0.26626247438
 0.26682897565
 0.26739408429
 0.26795780955
 0.26852016058
 0.26908114644
 0.26964077609
 0.27019905839
 0.27075600210
 0.27131161592
 0.27186590841
 0.27241888807
 0.27297056331
 0.27352094245
 0.27407003372
 0.27461784527
 0.27516438515
 0.27570966136
 0.27625368178
 0.27679645424
 0.27733798649
 0.27787828617
 0.27841736088
 0.27895521812
 0.27949186533
 0.28002730987
 0.28056155903
 0.28109462002
 0.28162649999
 0.28215720602
 0.28268674510
 0.28321512419
 0.28374235014
 0.28426842977
 0.28479336982
 0.28531717696
 0.28583985780
 0.28636141889
 0.28688186672
 0.28740120772
 0.28791944825
 0.28843659462
 0.28895265308
 0.28946762981
 0.28998153095
 0.29049436257
 0.29100613070
 0.29151684130
 0.29202650027
 0.29253511349
 0.29304268674
 0.29354922579
 0.29405473633
 0.29455922400
 0.29506269442
 0.29556515313
 0.29606660562
 0.29656705735
 0.29706651372
 0.29756498009
 0.29806246175
 0.29855896399
 0.29905449200
 0.29954905097
 0.30004264602
 0.30053528223
 0.30102696464
 0.30151769825
 0.30200748801
 0.30249633883
 0.30298425558
 0.30347124309
 0.30395730615
 0.30444244950
 0.30492667785
 0.30540999588
 0.30589240821
 0.30637391943
 0.30685453411
 0.30733425675
 0.30781309183
 0.30829104380
 0.30876811707
 0.30924431600
 0.30971964493
 0.31019410817
 0.31066770997
 0.31114045458
 0.31161234618
 0.31208338895
 0.31255358701
 0.31302294447
 0.31349146539
 0.31395915380
 0.31442601371
 0.31489204909
 0.31535726389
 0.31582166200
 0.31628524731
 0.31674802367
 0.31720999491
 0.31767116480
 0.31813153712
 0.31859111559
 0.31904990392
 0.31950790579
 0.31996512485
 0.32042156471
 0.32087722897
 0.32133212119
 0.32178624493
 0.32223960368
 0.32269220094
 0.32314404018
 0.32359512482
 0.32404545827
 0.32449504393
 0.32494388516
 0.32539198528
 0.32583934762
 0.32628597545
 0.32673187205
 0.32717704066
 0.32762148448
 0.32806520672
 0.32850821055
 0.32895049911
 0.32939207554
 0.32983294293
 0.33027310436
 0.33071256290
 0.33115132159
 0.33158938343
 0.33202675144
 0.33246342858
 0.33289941780
 0.33333472204
 0.33376934422
 0.33420328722
 0.33463655393
 0.33506914718
 0.33550106982
 0.33593232466
 0.33636291450
 0.33679284211
 0.33722211024
 0.33765072165
 0.33807867904
 0.33850598512
 0.33893264257
 0.33935865406
 0.33978402224
 0.34020874973
 0.34063283915
 0.34105629309
 0.34147911414
 0.34190130484
 0.34232286776
 0.34274380540
 0.34316412029
 0.34358381492
 0.34400289177
 0.34442135330
 0.34483920195
 0.34525644016
 0.34567307034
 0.34608909488
 0.34650451618
 0.34691933661
 0.34733355850
 0.34774718421
 0.34816021606
 0.34857265635
 0.34898450737
 0.34939577142
 0.34980645075
 0.35021654762
 0.35062606425
 0.35103500288
 0.35144336572
 0.35185115495
 0.35225837276
 0.35266502132
 0.35307110279
 0.35347661930
 0.35388157298
 0.35428596595
 0.35468980031
 0.35509307815
 0.35549580154
 0.35589797256
 0.35629959325
 0.35670066565
 0.35710119179
 0.35750117369
 0.35790061334
 0.35829951274
 0.35869787386
 0.35909569867
 0.35949298914
 0.35988974719
 0.36028597477
 0.36068167379
 0.36107684617
 0.36147149380
 0.36186561857
 0.36225922235
 0.36265230701
 0.36304487441
 0.36343692638
 0.36382846477
 0.36421949138
 0.36461000804
 0.36500001655
 0.36538951869
 0.36577851625
 0.36616701100
 0.36655500469
 0.36694249908
 0.36732949590
 0.36771599690
 0.36810200378
 0.36848751826
 0.36887254204
 0.36925707682
 0.36964112426
 0.37002468606
 0.37040776386
 0.37079035933
 0.37117247410
 0.37155410982
 0.37193526812
 0.37231595060
 0.37269615888
 0.37307589455
 0.37345515922
 0.37383395445
 0.37421228184
 0.37459014293
 0.37496753929
 0.37534447246
 0.37572094399
 0.37609695540
 0.37647250822
 0.37684760397
 0.37722224415
 0.37759643025
 0.37797016378
 0.37834344621
 0.37871627902
 0.37908866367
 0.37946060163
 0.37983209434
 0.38020314326
 0.38057374980
 0.38094391541
 0.38131364151
 0.38168292951
 0.38205178080
 0.38242019681
 0.38278817890
 0.38315572848
 0.38352284692
 0.38388953558
 0.38425579582
 0.38462162902
 0.38498703651
 0.38535201963
 0.38571657973
 0.38608071812
 0.38644443614
 0.38680773509
 0.38717061628
 0.38753308102
 0.38789513060
 0.38825676630
 0.38861798942
 0.38897880121
 0.38933920296
 0.38969919593
 0.39005878137
 0.39041796053
 0.39077673465
 0.39113510498
 0.39149307274
 0.39185063916
 0.39220780545
 0.39256457284
 0.39292094252
 0.39327691570
 0.39363249358
 0.39398767734
 0.39434246816
 0.39469686723
 0.39505087571
 0.39540449478
 0.39575772559
 0.39611056930
 0.39646302705
 0.39681509999
 0.39716678927
 0.39751809600
 0.39786902132
 0.39821956636
 0.39856973222
 0.39891952002
 0.39926893086
 0.39961796585
 0.39996662608
 0.40031491264
 0.40066282661
 0.40101036908
 0.40135754112
 0.40170434380
 0.40205077818
 0.40239684533
 0.40274254630
 0.40308788213
 0.40343285388
 0.40377746258
 0.40412170927
 0.40446559498
 0.40480912074
 0.40515228756
 0.40549509646
 0.40583754846
 0.40617964455
 0.40652138575
 0.40686277304
 0.40720380743
 0.40754448990
 0.40788482144
 0.40822480302
 0.40856443562
 0.40890372020
 0.40924265775
 0.40958124921
 0.40991949555
 0.41025739772
 0.41059495667
 0.41093217333
 0.41126904866
 0.41160558359
 0.41194177906
 0.41227763597
 0.41261315528
 0.41294833788
 0.41328318470
 0.41361769665
 0.41395187464
 0.41428571957
 0.41461923233
 0.41495241383
 0.41528526496
 0.41561778660
 0.41594997964
 0.41628184496
 0.41661338343
 0.41694459593
 0.41727548332
 0.41760604647
 0.41793628625
 0.41826620350
 0.41859579908
 0.41892507384
 0.41925402863
 0.41958266429
 0.41991098165
 0.42023898156
 0.42056666485
 0.42089403234
 0.42122108486
 0.42154782323
 0.42187424827
 0.42220036079
 0.42252616160
 0.42285165151
 0.42317683133
 0.42350170185
 0.42382626387
 0.42415051819
 0.42447446559
 0.42479810687
 0.42512144280
 0.42544447418
 0.42576720176
 0.42608962634
 0.42641174868
 0.42673356955
 0.42705508971
 0.42737630992
 0.42769723095
 0.42801785354
 0.42833817845
 0.42865820644
 0.42897793823
 0.42929737459
 0.42961651624
 0.42993536393
 0.43025391838
 0.43057218034
 0.43089015052
 0.43120782965
 0.43152521846
 0.43184231766
 0.43215912796
 0.43247565009
 0.43279188475
 0.43310783266
 0.43342349450
 0.43373887100
 0.43405396284
 0.43436877072
 0.43468329533
 0.43499753738
 0.43531149753
 0.43562517649
 0.43593857493
 0.43625169353
 0.43656453297
 0.43687709392
 0.43718937706
 0.43750138306
 0.43781311257
 0.43812456627
 0.43843574482
 0.43874664887
 0.43905727909
 0.43936763612
 0.43967772061
 0.43998753323
 0.44029707460
 0.44060634538
 0.44091534620
 0.44122407771
 0.44153254054
 0.44184073532
 0.44214866269
 0.44245632328
 0.44276371770
 0.44307084659
 0.44337771057
 0.44368431025
 0.44399064626
 0.44429671920
 0.44460252970
 0.44490807835
 0.44521336577
 0.44551839257
 0.44582315934
 0.44612766668
 0.44643191521
 0.44673590550
 0.44703963816
 0.44734311377
 0.44764633293
 0.44794929623
 0.44825200425
 0.44855445757
 0.44885665677
 0.44915860243
 0.44946029513
 0.44976173545
 0.45006292395
 0.45036386120
 0.45066454778
 0.45096498425
 0.45126517117
 0.45156510910
 0.45186479861
 0.45216424026
 0.45246343459
 0.45276238216
 0.45306108353
 0.45335953924
 0.45365774983
 0.45395571587
 0.45425343789
 0.45455091642
 0.45484815202
 0.45514514522
 0.45544189655
 0.45573840655
 0.45603467575
 0.45633070468
 0.45662649387
 0.45692204384
 0.45721735513
 0.45751242824
 0.45780726371
 0.45810186205
 0.45839622378
 0.45869034941
 0.45898423946
 0.45927789444
 0.45957131485
 0.45986450121
 0.46015745403
 0.46045017379
 0.46074266102
 0.46103491621
 0.46132693985
 0.46161873245
 0.46191029450
 0.46220162650
 0.46249272893
 0.46278360229
 0.46307424706
 0.46336466374
 0.46365485281
 0.46394481475
 0.46423455004
 0.46452405916
 0.46481334260
 0.46510240082
 0.46539123431
 0.46567984354
 0.46596822898
 0.46625639109
 0.46654433036
 0.46683204724
 0.46711954221
 0.46740681572
 0.46769386824
 0.46798070022
 0.46826731214
 0.46855370444
 0.46883987758
 0.46912583202
 0.46941156821
 0.46969708661
 0.46998238765
 0.47026747179
 0.47055233948
 0.47083699116
 0.47112142728
 0.47140564828
 0.47168965460
 0.47197344667
 0.47225702495
 0.47254038986
 0.47282354183
 0.47310648132
 0.47338920873
 0.47367172451
 0.47395402909
 0.47423612290
 0.47451800635
 0.47479967988
 0.47508114390
 0.47536239885
 0.47564344515
 0.47592428320
 0.47620491344
 0.47648533627
 0.47676555211
 0.47704556139
 0.47732536450
 0.47760496187
 0.47788435389
 0.47816354099
 0.47844252356
 0.47872130202
 0.47899987677
 0.47927824821
 0.47955641675
 0.47983438278
 0.48011214670
 0.48038970892
 0.48066706983
 0.48094422983
 0.48122118931
 0.48149794866
 0.48177450828
 0.48205086856
 0.48232702988
 0.48260299264
 0.48287875722
 0.48315432401
 0.48342969339
 0.48370486574
 0.48397984146
 0.48425462091
 0.48452920448
 0.48480359255
 0.48507778549
 0.48535178369
 0.48562558751
 0.48589919733
 0.48617261352
 0.48644583645
 0.48671886650
 0.48699170404
 0.48726434942
 0.48753680302
 0.48780906521
 0.48808113634
 0.48835301679
 0.48862470691
 0.48889620706
 0.48916751761
 0.48943863892
 0.48970957134
 0.48998031522
 0.49025087093
 0.49052123882
 0.49079141925
 0.49106141255
 0.49133121910
 0.49160083923
 0.49187027330
 0.49213952165
 0.49240858463
 0.49267746259
 0.49294615587
 0.49321466482
 0.49348298977
 0.49375113108
 0.49401908908
 0.49428686410
 0.49455445650
 0.49482186661
 0.49508909476
 0.49535614129
 0.49562300653
 0.49588969082
 0.49615619450
 0.49642251788
 0.49668866131
 0.49695462511
 0.49722040961
 0.49748601514
 0.49775144203
 0.49801669060
 0.49828176118
 0.49854665408
 0.49881136964
 0.49907590817
 0.49934027000
 0.49960445545
 0.49986846483
 0.50013229846
 0.50039595667
 0.50065943976
 0.50092274805
 0.50118588186
 0.50144884149
 0.50171162728
 0.50197423951
 0.50223667851
 0.50249894458
 0.50276103804
 0.50302295919
 0.50328470834
 0.50354628579
 0.50380769185
 0.50406892683
 0.50432999103
 0.50459088474
 0.50485160828
 0.50511216195
 0.50537254603
 0.50563276084
 0.50589280668
 0.50615268383
 0.50641239259
 0.50667193327
 0.50693130615
 0.50719051154
 0.50744954972
 0.50770842098
 0.50796712563
 0.50822566394
 0.50848403621
 0.50874224272
 0.50900028378
 0.50925815965
 0.50951587064
 0.50977341702
 0.51003079909
 0.51028801712
 0.51054507140
 0.51080196221
 0.51105868983
 0.51131525455
 0.51157165664
 0.51182789638
 0.51208397406
 0.51233988995
 0.51259564433
 0.51285123747
 0.51310666965
 0.51336194115
 0.51361705224
 0.51387200318
 0.51412679426
 0.51438142575
 0.51463589792
 0.51489021103
 0.51514436536
 0.51539836118
 0.51565219875
 0.51590587834
 0.51615940022
 0.51641276466
 0.51666597191
 0.51691902225
 0.51717191593
 0.51742465323
 0.51767723439
 0.51792965969
 0.51818192939
 0.51843404374
 0.51868600300
 0.51893780744
 0.51918945730
 0.51944095286
 0.51969229436
 0.51994348206
 0.52019451621
 0.52044539708
 0.52069612491
 0.52094669995
 0.52119712247
 0.52144739271
 0.52169751091
 0.52194747735
 0.52219729225
 0.52244695587
 0.52269646847
 0.52294583028
 0.52319504156
 0.52344410255
 0.52369301349
 0.52394177464
 0.52419038623
 0.52443884852
 0.52468716173
 0.52493532612
 0.52518334193
 0.52543120940
 0.52567892877
 0.52592650028
 0.52617392416
 0.52642120067
 0.52666833003
 0.52691531248
 0.52716214826
 0.52740883761
 0.52765538075
 0.52790177794
 0.52814802939
 0.52839413535
 0.52864009605
 0.52888591172
 0.52913158258
 0.52937710889
 0.52962249085
 0.52986772871
 0.53011282269
 0.53035777303
 0.53060257994
 0.53084724366
 0.53109176442
 0.53133614244
 0.53158037795
 0.53182447117
 0.53206842233
 0.53231223165
 0.53255589935
 0.53279942567
 0.53304281081
 0.53328605501
 0.53352915849
 0.53377212146
 0.53401494414
 0.53425762676
 0.53450016953
 0.53474257268
 0.53498483641
 0.53522696096
 0.53546894652
 0.53571079333
 0.53595250160
 0.53619407154
 0.53643550336
 0.53667679729
 0.53691795353
 0.53715897230
 0.53739985381
 0.53764059827
 0.53788120589
 0.53812167689
 0.53836201147
 0.53860220985
 0.53884227223
 0.53908219882
 0.53932198983
 0.53956164548
 0.53980116596
 0.54004055148
 0.54027980225
 0.54051891847
 0.54075790035
 0.54099674810
 0.54123546192
 0.54147404201
 0.54171248857
 0.54195080181
 0.54218898194
 0.54242702914
 0.54266494363
 0.54290272560
 0.54314037525
 0.54337789279
 0.54361527840
 0.54385253231
 0.54408965468
 0.54432664574
 0.54456350567
 0.54480023467
 0.54503683294
 0.54527330067
 0.54550963806
 0.54574584531
 0.54598192260
 0.54621787013
 0.54645368810
 0.54668937669
 0.54692493611
 0.54716036653
 0.54739566817
 0.54763084119
 0.54786588580
 0.54810080219
 0.54833559054
 0.54857025105
 0.54880478389
 0.54903918928
 0.54927346738
 0.54950761838
 0.54974164248
 0.54997553986
 0.55020931071
 0.55044295521
 0.55067647355
 0.55090986590
 0.55114313247
 0.55137627342
 0.55160928895
 0.55184217924
 0.55207494446
 0.55230758481
 0.55254010045
 0.55277249158
 0.55300475838
 0.55323690102
 0.55346891969
 0.55370081456
 0.55393258582
 0.55416423364
 0.55439575820
 0.55462715968
 0.55485843825
 0.55508959410
 0.55532062739
 0.55555153832
 0.55578232704
 0.55601299375
 0.55624353860
 0.55647396178
 0.55670426346
 0.55693444382
 0.55716450303
 0.55739444125
 0.55762425867
 0.55785395545
 0.55808353177
 0.55831298780
 0.55854232371
 0.55877153967
 0.55900063585
 0.55922961242
 0.55945846955
 0.55968720741
 0.55991582616
 0.56014432598
 0.56037270703
 0.56060096948
 0.56082911349
 0.56105713925
 0.56128504690
 0.56151283662
 0.56174050856
 0.56196806291
 0.56219549982
 0.56242281945
 0.56265002197
 0.56287710754
 0.56310407634
 0.56333092851
 0.56355766422
 0.56378428364
 0.56401078692
 0.56423717423
 0.56446344572
 0.56468960157
 0.56491564193
 0.56514156695
 0.56536737680
 0.56559307164
 0.56581865163
 0.56604411692
 0.56626946768
 0.56649470406
 0.56671982621
 0.56694483431
 0.56716972849
 0.56739450892
 0.56761917576
 0.56784372916
 0.56806816927
 0.56829249626
 0.56851671027
 0.56874081146
 0.56896479999
 0.56918867600
 0.56941243965
 0.56963609109
 0.56985963049
 0.57008305798
 0.57030637372
 0.57052957786
 0.57075267056
 0.57097565196
 0.57119852221
 0.57142128147
 0.57164392988
 0.57186646760
 0.57208889477
 0.57231121155
 0.57253341807
 0.57275551450
 0.57297750097
 0.57319937764
 0.57342114465
 0.57364280215
 0.57386435028
 0.57408578920
 0.57430711905
 0.57452833997
 0.57474945210
 0.57497045561
 0.57519135062
 0.57541213729
 0.57563281575
 0.57585338616
 0.57607384865
 0.57629420337
 0.57651445046
 0.57673459006
 0.57695462232
 0.57717454738
 0.57739436537
 0.57761407645
 0.57783368075
 0.57805317841
 0.57827256958
 0.57849185439
 0.57871103298
 0.57893010549
 0.57914907207
 0.57936793285
 0.57958668796
 0.57980533756
 0.58002388177
 0.58024232073
 0.58046065459
 0.58067888347
 0.58089700752
 0.58111502687
 0.58133294166
 0.58155075202
 0.58176845809
 0.58198606001
 0.58220355790
 0.58242095191
 0.58263824217
 0.58285542882
 0.58307251198
 0.58328949180
 0.58350636840
 0.58372314192
 0.58393981248
 0.58415638024
 0.58437284531
 0.58458920782
 0.58480546792
 0.58502162573
 0.58523768138
 0.58545363500
 0.58566948673
 0.58588523670
 0.58610088502
 0.58631643185
 0.58653187729
 0.58674722149
 0.58696246457
 0.58717760667
 0.58739264790
 0.58760758840
 0.58782242830
 0.58803716772
 0.58825180679
 0.58846634564
 0.58868078440
 0.58889512319
 0.58910936213
 0.58932350136
 0.58953754100
 0.58975148118
 0.58996532202
 0.59017906364
 0.59039270618
 0.59060624975
 0.59081969448
 0.59103304049
 0.59124628792
 0.59145943687
 0.59167248748
 0.59188543987
 0.59209829416
 0.59231105047
 0.59252370893
 0.59273626965
 0.59294873277
 0.59316109839
 0.59337336665
 0.59358553766
 0.59379761155
 0.59400958843
 0.59422146842
 0.59443325165
 0.59464493824
 0.59485652830
 0.59506802196
 0.59527941933
 0.59549072053
 0.59570192568
 0.59591303490
 0.59612404831
 0.59633496602
 0.59654578816
 0.59675651484
 0.59696714618
 0.59717768229
 0.59738812329
 0.59759846930
 0.59780872043
 0.59801887681
 0.59822893854
 0.59843890574
 0.59864877853
 0.59885855702
 0.59906824133
 0.59927783158
 0.59948732786
 0.59969673031
 0.59990603904
 0.60011525415
 0.60032437576
 0.60053340399
 0.60074233895
 0.60095118075
 0.60115992950
 0.60136858532
 0.60157714832
 0.60178561861
 0.60199399630
 0.60220228151
 0.60241047434
 0.60261857490
 0.60282658332
 0.60303449969
 0.60324232413
 0.60345005675
 0.60365769766
 0.60386524696
 0.60407270478
 0.60428007121
 0.60448734637
 0.60469453036
 0.60490162330
 0.60510862529
 0.60531553645
 0.60552235687
 0.60572908667
 0.60593572595
 0.60614227483
 0.60634873341
 0.60655510179
 0.60676138009
 0.60696756840
 0.60717366685
 0.60737967553
 0.60758559454
 0.60779142400
 0.60799716402
 0.60820281468
 0.60840837611
 0.60861384841
 0.60881923168
 0.60902452602
 0.60922973154
 0.60943484835
 0.60963987655
 0.60984481623
 0.61004966752
 0.61025443050
 0.61045910529
 0.61066369198
 0.61086819068
 0.61107260149
 0.61127692451
 0.61148115985
 0.61168530761
 0.61188936789
 0.61209334078
 0.61229722641
 0.61250102485
 0.61270473622
 0.61290836062
 0.61311189814
 0.61331534890
 0.61351871297
 0.61372199048
 0.61392518152
 0.61412828618
 0.61433130457
 0.61453423679
 0.61473708293
 0.61493984309
 0.61514251738
 0.61534510590
 0.61554760873
 0.61575002598
 0.61595235775
 0.61615460414
 0.61635676524
 0.61655884114
 0.61676083196
 0.61696273778
 0.61716455870
 0.61736629482
 0.61756794624
 0.61776951305
 0.61797099535
 0.61817239323
 0.61837370679
 0.61857493613
 0.61877608133
 0.61897714251
 0.61917811975
 0.61937901314
 0.61957982279
 0.61978054878
 0.61998119122
 0.62018175019
 0.62038222579
 0.62058261811
 0.62078292725
 0.62098315331
 0.62118329636
 0.62138335652
 0.62158333387
 0.62178322850
 0.62198304051
 0.62218276998
 0.62238241702
 0.62258198172
 0.62278146416
 0.62298086444
 0.62318018264
 0.62337941887
 0.62357857322
 0.62377764577
 0.62397663661
 0.62417554584
 0.62437437355
 0.62457311983
 0.62477178476
 0.62497036845
 0.62516887097
 0.62536729242
 0.62556563289
 0.62576389247
 0.62596207125
 0.62616016931
 0.62635818675
 0.62655612366
 0.62675398011
 0.62695175622
 0.62714945205
 0.62734706770
 0.62754460327
 0.62774205882
 0.62793943447
 0.62813673028
 0.62833394635
 0.62853108277
 0.62872813962
 0.62892511700
 0.62912201498
 0.62931883365
 0.62951557311
 0.62971223344
 0.62990881472
 0.63010531704
 0.63030174048
 0.63049808514
 0.63069435110
 0.63089053844
 0.63108664725
 0.63128267761
 0.63147862962
 0.63167450334
 0.63187029888
 0.63206601631
 0.63226165572
 0.63245721719
 0.63265270081
 0.63284810666
 0.63304343482
 0.63323868538
 0.63343385843
 0.63362895404
 0.63382397230
 0.63401891329
 0.63421377710
 0.63440856380
 0.63460327349
 0.63479790624
 0.63499246213
 0.63518694126
 0.63538134369
 0.63557566952
 0.63576991882
 0.63596409168
 0.63615818817
 0.63635220839
 0.63654615240
 0.63674002030
 0.63693381216
 0.63712752806
 0.63732116809
 0.63751473232
 0.63770822084
 0.63790163372
 0.63809497105
 0.63828823291
 0.63848141937
 0.63867453051
 0.63886756643
 0.63906052718
 0.63925341287
 0.63944622355
 0.63963895932
 0.63983162025
 0.64002420642
 0.64021671791
 0.64040915479
 0.64060151715
 0.64079380507
 0.64098601862
 0.64117815788
 0.64137022293
 0.64156221384
 0.64175413070
 0.64194597358
 0.64213774256
 0.64232943771
 0.64252105911
 0.64271260685
 0.64290408099
 0.64309548162
 0.64328680880
 0.64347806263
 0.64366924316
 0.64386035048
 0.64405138467
 0.64424234580
 0.64443323395
 0.64462404919
 0.64481479159
 0.64500546124
 0.64519605821
 0.64538658257
 0.64557703440
 0.64576741377
 0.64595772076
 0.64614795545
 0.64633811790
 0.64652820819
 0.64671822640
 0.64690817260
 0.64709804687
 0.64728784927
 0.64747757988
 0.64766723878
 0.64785682604
 0.64804634173
 0.64823578593
 0.64842515871
 0.64861446014
 0.64880369029
 0.64899284924
 0.64918193706
 0.64937095383
 0.64955989961
 0.64974877448
 0.64993757851
 0.65012631176
 0.65031497433
 0.65050356627
 0.65069208765
 0.65088053856
 0.65106891906
 0.65125722922
 0.65144546911
 0.65163363880
 0.65182173837
 0.65200976789
 0.65219772743
 0.65238561705
 0.65257343683
 0.65276118684
 0.65294886714
 0.65313647782
 0.65332401893
 0.65351149056
 0.65369889276
 0.65388622561
 0.65407348918
 0.65426068354
 0.65444780876
 0.65463486490
 0.65482185204
 0.65500877024
 0.65519561957
 0.65538240011
 0.65556911192
 0.65575575507
 0.65594232963
 0.65612883566
 0.65631527324
 0.65650164243
 0.65668794330
 0.65687417592
 0.65706034036
