packages/acesdp3/luts/sRGB_to_linear.spi1d
Version 1
From 0.00000000000 1.00000000000
Length 4096
Components 1
{
 0.00000000000
 0.00001890095
 0.00003780190
 0.00005670284
 0.00007560379
 0.00009450474
 0.00011340569
 0.00013230663
 0.00015120758
 0.00017010853
 0.00018900948
 0.00020791042
 0.00022681137
 0.00024571232
 0.00026461327
 0.00028351422
 0.00030241516
 0.00032131611
 0.00034021706
 0.00035911801
 0.00037801895
 0.00039691990
 0.00041582085
 0.00043472180
 0.00045362274
 0.00047252369
 0.00049142464
 0.00051032559
 0.00052922654
 0.00054812748
 0.00056702843
 0.00058592938
 0.00060483033
 0.00062373127
 0.00064263222
 0.00066153317
 0.00068043412
 0.00069933506
 0.00071823601
 0.00073713696
 0.00075603791
 0.00077493886
 0.00079383980
 0.00081274075
 0.00083164170
 0.00085054265
 0.00086944359
 0.00088834454
 0.00090724549
 0.00092614644
 0.00094504738
 0.00096394833
 0.00098284928
 0.00100175023
 0.00102065118
 0.00103955212
 0.00105845307
 0.00107735402
 0.00109625497
 0.00111515591
 0.00113405686
 0.00115295781
 0.00117185876
 0.00119075970
 0.00120966065
 0.00122856160
 0.00124746255
 0.00126636350
 0.00128526444
 0.00130416539
 0.00132306634
 0.00134196729
 0.00136086823
 0.00137976918
 0.00139867013
 0.00141757108
 0.00143647202
 0.00145537297
 0.00147427392
 0.00149317487
 0.00151207582
 0.00153097676
 0.00154987771
 0.00156877866
 0.00158767961
 0.00160658055
 0.00162548150
 0.00164438245
 0.00166328340
 0.00168218434
 0.00170108529
 0.00171998624
 0.00173888719
 0.00175778814
 0.00177668908
 0.00179559003
 0.00181449098
 0.00183339193
 0.00185229287
 0.00187119382
 0.00189009477
 0.00190899572
 0.00192789666
 0.00194679761
 0.00196569856
 0.00198459951
 0.00200350046
 0.00202240140
 0.00204130235
 0.00206020330
 0.00207910425
 0.00209800519
 0.00211690614
 0.00213580709
 0.00215470804
 0.00217360898
 0.00219250993
 0.00221141088
 0.00223031183
 0.00224921278
 0.00226811372
 0.00228701467
 0.00230591562
 0.00232481657
 0.00234371751
 0.00236261846
 0.00238151941
 0.00240042036
 0.00241932130
 0.00243822225
 0.00245712320
 0.00247602415
 0.00249492510
 0.00251382604
 0.00253272699
 0.00255162794
 0.00257052889
 0.00258942983
 0.00260833078
 0.00262723173
 0.00264613268
 0.00266503362
 0.00268393457
 0.00270283552
 0.00272173647
 0.00274063742
 0.00275953836
 0.00277843931
 0.00279734026
 0.00281624121
 0.00283514215
 0.00285404310
 0.00287294405
 0.00289184500
 0.00291074594
 0.00292964689
 0.00294854784
 0.00296744879
 0.00298634974
 0.00300525068
 0.00302415163
 0.00304305258
 0.00306195353
 0.00308085447
 0.00309975542
 0.00311865637
 0.00313767936
 0.00315696214
 0.00317631388
 0.00319573464
 0.00321522449
 0.00323478351
 0.00325441175
 0.00327410929
 0.00329387621
 0.00331371256
 0.00333361843
 0.00335359387
 0.00337363896
 0.00339375377
 0.00341393837
 0.00343419282
 0.00345451720
 0.00347491157
 0.00349537600
 0.00351591056
 0.00353651533
 0.00355719036
 0.00357793572
 0.00359875149
 0.00361963774
 0.00364059452
 0.00366162191
 0.00368271998
 0.00370388879
 0.00372512841
 0.00374643891
 0.00376782036
 0.00378927282
 0.00381079636
 0.00383239105
 0.00385405696
 0.00387579415
 0.00389760268
 0.00391948263
 0.00394143407
 0.00396345705
 0.00398555165
 0.00400771793
 0.00402995595
 0.00405226580
 0.00407464752
 0.00409710118
 0.00411962686
 0.00414222462
 0.00416489452
 0.00418763663
 0.00421045102
 0.00423333775
 0.00425629688
 0.00427932848
 0.00430243262
 0.00432560936
 0.00434885877
 0.00437218091
 0.00439557585
 0.00441904364
 0.00444258437
 0.00446619808
 0.00448988485
 0.00451364474
 0.00453747781
 0.00456138413
 0.00458536376
 0.00460941676
 0.00463354321
 0.00465774316
 0.00468201668
 0.00470636384
 0.00473078468
 0.00475527929
 0.00477984772
 0.00480449003
 0.00482920630
 0.00485399657
 0.00487886093
 0.00490379942
 0.00492881211
 0.00495389907
 0.00497906036
 0.00500429603
 0.00502960616
 0.00505499081
 0.00508045003
 0.00510598390
 0.00513159247
 0.00515727580
 0.00518303396
 0.00520886701
 0.00523477502
 0.00526075803
 0.00528681613
 0.00531294936
 0.00533915779
 0.00536544148
 0.00539180050
 0.00541823490
 0.00544474475
 0.00547133010
 0.00549799102
 0.00552472758
 0.00555153982
 0.00557842782
 0.00560539162
 0.00563243131
 0.00565954693
 0.00568673854
 0.00571400621
 0.00574135000
 0.00576876996
 0.00579626617
 0.00582383867
 0.00585148753
 0.00587921282
 0.00590701458
 0.00593489288
 0.00596284778
 0.00599087934
 0.00601898762
 0.00604717269
 0.00607543459
 0.00610377339
 0.00613218915
 0.00616068192
 0.00618925178
 0.00621789877
 0.00624662296
 0.00627542441
 0.00630430317
 0.00633325931
 0.00636229288
 0.00639140395
 0.00642059256
 0.00644985879
 0.00647920269
 0.00650862431
 0.00653812372
 0.00656770098
 0.00659735615
 0.00662708927
 0.00665690042
 0.00668678964
 0.00671675701
 0.00674680257
 0.00677692639
 0.00680712851
 0.00683740901
 0.00686776794
 0.00689820535
 0.00692872131
 0.00695931587
 0.00698998910
 0.00702074104
 0.00705157175
 0.00708248130
 0.00711346973
 0.00714453712
 0.00717568351
 0.00720690896
 0.00723821354
 0.00726959729
 0.00730106027
 0.00733260254
 0.00736422417
 0.00739592519
 0.00742770568
 0.00745956569
 0.00749150528
 0.00752352449
 0.00755562340
 0.00758780205
 0.00762006050
 0.00765239881
 0.00768481703
 0.00771731523
 0.00774989345
 0.00778255175
 0.00781529020
 0.00784810884
 0.00788100773
 0.00791398693
 0.00794704650
 0.00798018648
 0.00801340694
 0.00804670793
 0.00808008950
 0.00811355172
 0.00814709464
 0.00818071831
 0.00821442279
 0.00824820813
 0.00828207439
 0.00831602163
 0.00835004989
 0.00838415924
 0.00841834974
 0.00845262142
 0.00848697436
 0.00852140860
 0.00855592421
 0.00859052122
 0.00862519971
 0.00865995972
 0.00869480131
 0.00872972454
 0.00876472945
 0.00879981611
 0.00883498456
 0.00887023487
 0.00890556708
 0.00894098125
 0.00897647744
 0.00901205569
 0.00904771607
 0.00908345862
 0.00911928341
 0.00915519048
 0.00919117989
 0.00922725169
 0.00926340593
 0.00929964268
 0.00933596198
 0.00937236389
 0.00940884846
 0.00944541575
 0.00948206580
 0.00951879868
 0.00955561443
 0.00959251311
 0.00962949477
 0.00966655946
 0.00970370725
 0.00974093817
 0.00977825229
 0.00981564965
 0.00985313032
 0.00989069434
 0.00992834176
 0.00996607265
 0.01000388704
 0.01004178500
 0.01007976658
 0.01011783183
 0.01015598080
 0.01019421354
 0.01023253011
 0.01027093056
 0.01030941495
 0.01034798331
 0.01038663572
 0.01042537221
 0.01046419285
 0.01050309767
 0.01054208675
 0.01058116012
 0.01062031784
 0.01065955996
 0.01069888653
 0.01073829761
 0.01077779325
 0.01081737350
 0.01085703840
 0.01089678802
 0.01093662240
 0.01097654160
 0.01101654566
 0.01105663464
 0.01109680859
 0.01113706757
 0.01117741161
 0.01121784078
 0.01125835512
 0.01129895469
 0.01133963954
 0.01138040971
 0.01142126526
 0.01146220625
 0.01150323271
 0.01154434471
 0.01158554229
 0.01162682551
 0.01166819441
 0.01170964904
 0.01175118946
 0.01179281572
 0.01183452787
 0.01187632595
 0.01191821002
 0.01196018013
 0.01200223633
 0.01204437867
 0.01208660720
 0.01212892197
 0.01217132303
 0.01221381043
 0.01225638423
 0.01229904446
 0.01234179119
 0.01238462445
 0.01242754431
 0.01247055081
 0.01251364400
 0.01255682393
 0.01260009065
 0.01264344421
 0.01268688466
 0.01273041205
 0.01277402643
 0.01281772785
 0.01286151636
 0.01290539201
 0.01294935484
 0.01299340492
 0.01303754227
 0.01308176697
 0.01312607905
 0.01317047856
 0.01321496556
 0.01325954009
 0.01330420220
 0.01334895194
 0.01339378937
 0.01343871452
 0.01348372745
 0.01352882821
 0.01357401684
 0.01361929340
 0.01366465793
 0.01371011048
 0.01375565111
 0.01380127985
 0.01384699677
 0.01389280190
 0.01393869529
 0.01398467700
 0.01403074708
 0.01407690556
 0.01412315250
 0.01416948796
 0.01421591196
 0.01426242457
 0.01430902584
 0.01435571580
 0.01440249452
 0.01444936203
 0.01449631839
 0.01454336364
 0.01459049783
 0.01463772101
 0.01468503323
 0.01473243454
 0.01477992497
 0.01482750459
 0.01487517344
 0.01492293156
 0.01497077901
 0.01501871583
 0.01506674206
 0.01511485777
 0.01516306299
 0.01521135777
 0.01525974216
 0.01530821621
 0.01535677997
 0.01540543347
 0.01545417678
 0.01550300993
 0.01555193297
 0.01560094596
 0.01565004893
 0.01569924194
 0.01574852503
 0.01579789825
 0.01584736165
 0.01589691527
 0.01594655916
 0.01599629337
 0.01604611794
 0.01609603292
 0.01614603836
 0.01619613431
 0.01624632080
 0.01629659790
 0.01634696564
 0.01639742407
 0.01644797324
 0.01649861319
 0.01654934398
 0.01660016564
 0.01665107823
 0.01670208179
 0.01675317636
 0.01680436200
 0.01685563874
 0.01690700664
 0.01695846575
 0.01701001610
 0.01706165775
 0.01711339074
 0.01716521511
 0.01721713092
 0.01726913820
 0.01732123701
 0.01737342739
 0.01742570939
 0.01747808305
 0.01753054842
 0.01758310554
 0.01763575446
 0.01768849523
 0.01774132789
 0.01779425248
 0.01784726906
 0.01790037767
 0.01795357835
 0.01800687115
 0.01806025612
 0.01811373330
 0.01816730273
 0.01822096446
 0.01827471854
 0.01832856502
 0.01838250393
 0.01843653532
 0.01849065924
 0.01854487573
 0.01859918485
 0.01865358662
 0.01870808111
 0.01876266835
 0.01881734838
 0.01887212126
 0.01892698703
 0.01898194574
 0.01903699742
 0.01909214213
 0.01914737990
 0.01920271079
 0.01925813483
 0.01931365208
 0.01936926258
 0.01942496637
 0.01948076349
 0.01953665400
 0.01959263793
 0.01964871533
 0.01970488625
 0.01976115073
 0.01981750881
 0.01987396054
 0.01993050597
 0.01998714513
 0.02004387807
 0.02010070484
 0.02015762548
 0.02021464003
 0.02027174855
 0.02032895106
 0.02038624763
 0.02044363828
 0.02050112307
 0.02055870204
 0.02061637523
 0.02067414269
 0.02073200446
 0.02078996059
 0.02084801112
 0.02090615609
 0.02096439554
 0.02102272953
 0.02108115809
 0.02113968127
 0.02119829912
 0.02125701166
 0.02131581896
 0.02137472105
 0.02143371798
 0.02149280979
 0.02155199652
 0.02161127822
 0.02167065493
 0.02173012670
 0.02178969356
 0.02184935556
 0.02190911275
 0.02196896517
 0.02202891285
 0.02208895585
 0.02214909421
 0.02220932797
 0.02226965718
 0.02233008187
 0.02239060209
 0.02245121789
 0.02251192930
 0.02257273637
 0.02263363914
 0.02269463766
 0.02275573197
 0.02281692211
 0.02287820813
 0.02293959006
 0.02300106795
 0.02306264184
 0.02312431178
 0.02318607781
 0.02324793997
 0.02330989831
 0.02337195286
 0.02343410367
 0.02349635078
 0.02355869423
 0.02362113408
 0.02368367035
 0.02374630309
 0.02380903235
 0.02387185817
 0.02393478058
 0.02399779964
 0.02406091538
 0.02412412785
 0.02418743709
 0.02425084313
 0.02431434604
 0.02437794583
 0.02444164257
 0.02450543628
 0.02456932702
 0.02463331482
 0.02469739972
 0.02476158178
 0.02482586102
 0.02489023750
 0.02495471125
 0.02501928232
 0.02508395074
 0.02514871657
 0.02521357984
 0.02527854059
 0.02534359886
 0.02540875471
 0.02547400816
 0.02553935927
 0.02560480806
 0.02567035459
 0.02573599890
 0.02580174103
 0.02586758101
 0.02593351889
 0.02599955472
 0.02606568853
 0.02613192037
 0.02619825027
 0.02626467828
 0.02633120444
 0.02639782879
 0.02646455138
 0.02653137223
 0.02659829141
 0.02666530893
 0.02673242486
 0.02679963923
 0.02686695207
 0.02693436344
 0.02700187337
 0.02706948190
 0.02713718907
 0.02720499494
 0.02727289952
 0.02734090288
 0.02740900505
 0.02747720606
 0.02754550597
 0.02761390481
 0.02768240261
 0.02775099944
 0.02781969532
 0.02788849029
 0.02795738440
 0.02802637768
 0.02809547018
 0.02816466194
 0.02823395300
 0.02830334340
 0.02837283318
 0.02844242238
 0.02851211104
 0.02858189920
 0.02865178691
 0.02872177420
 0.02879186111
 0.02886204768
 0.02893233396
 0.02900271999
 0.02907320580
 0.02914379144
 0.02921447694
 0.02928526235
 0.02935614770
 0.02942713304
 0.02949821841
 0.02956940385
 0.02964068939
 0.02971207508
 0.02978356096
 0.02985514707
 0.02992683344
 0.02999862013
 0.03007050716
 0.03014249458
 0.03021458243
 0.03028677075
 0.03035905957
 0.03043144895
 0.03050393891
 0.03057652950
 0.03064922076
 0.03072201272
 0.03079490544
 0.03086789894
 0.03094099326
 0.03101418846
 0.03108748456
 0.03116088161
 0.03123437964
 0.03130797870
 0.03138167883
 0.03145548006
 0.03152938243
 0.03160338599
 0.03167749078
 0.03175169682
 0.03182600417
 0.03190041286
 0.03197492293
 0.03204953443
 0.03212424738
 0.03219906183
 0.03227397783
 0.03234899540
 0.03242411459
 0.03249933543
 0.03257465798
 0.03265008226
 0.03272560831
 0.03280123618
 0.03287696590
 0.03295279751
 0.03302873106
 0.03310476657
 0.03318090410
 0.03325714367
 0.03333348533
 0.03340992912
 0.03348647507
 0.03356312323
 0.03363987364
 0.03371672632
 0.03379368133
 0.03387073870
 0.03394789847
 0.03402516067
 0.03410252535
 0.03417999255
 0.03425756230
 0.03433523465
 0.03441300963
 0.03449088728
 0.03456886764
 0.03464695074
 0.03472513664
 0.03480342536
 0.03488181694
 0.03496031143
 0.03503890885
 0.03511760926
 0.03519641269
 0.03527531917
 0.03535432874
 0.03543344145
 0.03551265734
 0.03559197643
 0.03567139877
 0.03575092440
 0.03583055336
 0.03591028567
 0.03599012139
 0.03607006056
 0.03615010320
 0.03623024935
 0.03631049906
 0.03639085237
 0.03647130931
 0.03655186991
 0.03663253423
 0.03671330229
 0.03679417413
 0.03687514980
 0.03695622932
 0.03703741275
 0.03711870011
 0.03720009144
 0.03728158679
 0.03736318619
 0.03744488967
 0.03752669728
 0.03760860906
 0.03769062503
 0.03777274525
 0.03785496974
 0.03793729855
 0.03801973171
 0.03810226926
 0.03818491124
 0.03826765769
 0.03835050864
 0.03843346413
 0.03851652420
 0.03859968889
 0.03868295823
 0.03876633226
 0.03884981102
 0.03893339455
 0.03901708289
 0.03910087606
 0.03918477412
 0.03926877709
 0.03935288502
 0.03943709794
 0.03952141589
 0.03960583890
 0.03969036702
 0.03977500028
 0.03985973872
 0.03994458238
 0.04002953129
 0.04011458549
 0.04019974502
 0.04028500991
 0.04037038020
 0.04045585594
 0.04054143715
 0.04062712388
 0.04071291615
 0.04079881402
 0.04088481751
 0.04097092666
 0.04105714151
 0.04114346210
 0.04122988846
 0.04131642064
 0.04140305866
 0.04148980256
 0.04157665238
 0.04166360817
 0.04175066995
 0.04183783776
 0.04192511164
 0.04201249162
 0.04209997775
 0.04218757006
 0.04227526858
 0.04236307336
 0.04245098443
 0.04253900182
 0.04262712557
 0.04271535573
 0.04280369232
 0.04289213539
 0.04298068496
 0.04306934108
 0.04315810379
 0.04324697311
 0.04333594909
 0.04342503177
 0.04351422117
 0.04360351734
 0.04369292030
 0.04378243011
 0.04387204680
 0.04396177039
 0.04405160094
 0.04414153846
 0.04423158301
 0.04432173462
 0.04441199331
 0.04450235914
 0.04459283214
 0.04468341233
 0.04477409977
 0.04486489448
 0.04495579650
 0.04504680587
 0.04513792262
 0.04522914679
 0.04532047842
 0.04541191754
 0.04550346418
 0.04559511839
 0.04568688020
 0.04577874965
 0.04587072677
 0.04596281160
 0.04605500417
 0.04614730452
 0.04623971269
 0.04633222871
 0.04642485262
 0.04651758446
 0.04661042425
 0.04670337204
 0.04679642786
 0.04688959175
 0.04698286374
 0.04707624387
 0.04716973217
 0.04726332869
 0.04735703345
 0.04745084650
 0.04754476786
 0.04763879758
 0.04773293568
 0.04782718222
 0.04792153721
 0.04801600070
 0.04811057272
 0.04820525330
 0.04830004249
 0.04839494032
 0.04848994683
 0.04858506204
 0.04868028600
 0.04877561874
 0.04887106030
 0.04896661070
 0.04906227000
 0.04915803821
 0.04925391539
 0.04934990156
 0.04944599676
 0.04954220102
 0.04963851438
 0.04973493687
 0.04983146854
 0.04992810941
 0.05002485952
 0.05012171891
 0.05021868761
 0.05031576565
 0.05041295308
 0.05051024992
 0.05060765621
 0.05070517199
 0.05080279730
 0.05090053216
 0.05099837661
 0.05109633069
 0.05119439444
 0.05129256788
 0.05139085105
 0.05148924399
 0.05158774674
 0.05168635932
 0.05178508177
 0.05188391413
 0.05198285644
 0.05208190872
 0.05218107101
 0.05228034335
 0.05237972577
 0.05247921831
 0.05257882100
 0.05267853388
 0.05277835698
 0.05287829033
 0.05297833398
 0.05307848795
 0.05317875228
 0.05327912701
 0.05337961217
 0.05348020779
 0.05358091391
 0.05368173056
 0.05378265778
 0.05388369561
 0.05398484407
 0.05408610320
 0.05418747305
 0.05428895363
 0.05439054499
 0.05449224716
 0.05459406017
 0.05469598406
 0.05479801887
 0.05490016463
 0.05500242136
 0.05510478912
 0.05520726793
 0.05530985782
 0.05541255883
 0.05551537100
 0.05561829436
 0.05572132894
 0.05582447478
 0.05592773191
 0.05603110036
 0.05613458018
 0.05623817139
 0.05634187403
 0.05644568814
 0.05654961374
 0.05665365087
 0.05675779957
 0.05686205987
 0.05696643180
 0.05707091541
 0.05717551071
 0.05728021775
 0.05738503656
 0.05748996718
 0.05759500963
 0.05770016396
 0.05780543019
 0.05791080837
 0.05801629851
 0.05812190067
 0.05822761487
 0.05833344115
 0.05843937954
 0.05854543007
 0.05865159278
 0.05875786770
 0.05886425487
 0.05897075431
 0.05907736608
 0.05918409018
 0.05929092667
 0.05939787558
 0.05950493693
 0.05961211077
 0.05971939712
 0.05982679603
 0.05993430751
 0.06004193162
 0.06014966837
 0.06025751781
 0.06036547997
 0.06047355488
 0.06058174258
 0.06069004310
 0.06079845647
 0.06090698272
 0.06101562190
 0.06112437402
 0.06123323914
 0.06134221728
 0.06145130847
 0.06156051275
 0.06166983015
 0.06177926070
 0.06188880444
 0.06199846141
 0.06210823163
 0.06221811513
 0.06232811196
 0.06243822214
 0.06254844571
 0.06265878271
 0.06276923316
 0.06287979709
 0.06299047455
 0.06310126556
 0.06321217016
 0.06332318839
 0.06343432026
 0.06354556583
 0.06365692511
 0.06376839815
 0.06387998498
 0.06399168563
 0.06410350013
 0.06421542852
 0.06432747083
 0.06443962709
 0.06455189734
 0.06466428160
 0.06477677992
 0.06488939233
 0.06500211885
 0.06511495952
 0.06522791438
 0.06534098346
 0.06545416678
 0.06556746439
 0.06568087632
 0.06579440259
 0.06590804325
 0.06602179832
 0.06613566784
 0.06624965184
 0.06636375036
 0.06647796342
 0.06659229106
 0.06670673331
 0.06682129021
 0.06693596178
 0.06705074807
 0.06716564909
 0.06728066490
 0.06739579551
 0.06751104097
 0.06762640130
 0.06774187653
 0.06785746671
 0.06797317185
 0.06808899201
 0.06820492720
 0.06832097745
 0.06843714282
 0.06855342332
 0.06866981898
 0.06878632985
 0.06890295595
 0.06901969731
 0.06913655397
 0.06925352597
 0.06937061332
 0.06948781608
 0.06960513426
 0.06972256790
 0.06984011703
 0.06995778169
 0.07007556190
 0.07019345771
 0.07031146914
 0.07042959623
 0.07054783900
 0.07066619749
 0.07078467173
 0.07090326176
 0.07102196760
 0.07114078930
 0.07125972687
 0.07137878036
 0.07149794979
 0.07161723520
 0.07173663663
 0.07185615409
 0.07197578763
 0.07209553727
 0.07221540306
 0.07233538501
 0.07245548317
 0.07257569757
 0.07269602823
 0.07281647519
 0.07293703848
 0.07305771814
 0.07317851419
 0.07329942667
 0.07342045561
 0.07354160105
 0.07366286300
 0.07378424152
 0.07390573662
 0.07402734834
 0.07414907671
 0.07427092177
 0.07439288354
 0.07451496206
 0.07463715736
 0.07475946947
 0.07488189842
 0.07500444425
 0.07512710699
 0.07524988667
 0.07537278331
 0.07549579696
 0.07561892765
 0.07574217540
 0.07586554025
 0.07598902222
 0.07611262136
 0.07623633770
 0.07636017125
 0.07648412207
 0.07660819017
 0.07673237559
 0.07685667837
 0.07698109853
 0.07710563610
 0.07723029112
 0.07735506362
 0.07747995363
 0.07760496117
 0.07773008630
 0.07785532903
 0.07798068939
 0.07810616742
 0.07823176315
 0.07835747661
 0.07848330784
 0.07860925686
 0.07873532370
 0.07886150840
 0.07898781099
 0.07911423150
 0.07924076996
 0.07936742640
 0.07949420086
 0.07962109336
 0.07974810394
 0.07987523262
 0.08000247945
 0.08012984445
 0.08025732765
 0.08038492908
 0.08051264878
 0.08064048677
 0.08076844309
 0.08089651777
 0.08102471084
 0.08115302233
 0.08128145227
 0.08141000070
 0.08153866764
 0.08166745313
 0.08179635720
 0.08192537987
 0.08205452118
 0.08218378117
 0.08231315985
 0.08244265727
 0.08257227346
 0.08270200843
 0.08283186224
 0.08296183490
 0.08309192645
 0.08322213692
 0.08335246634
 0.08348291474
 0.08361348216
 0.08374416862
 0.08387497415
 0.08400589879
 0.08413694256
 0.08426810550
 0.08439938764
 0.08453078901
 0.08466230964
 0.08479394956
 0.08492570881
 0.08505758740
 0.08518958538
 0.08532170278
 0.08545393962
 0.08558629594
 0.08571877176
 0.08585136712
 0.08598408205
 0.08611691658
 0.08624987074
 0.08638294456
 0.08651613808
 0.08664945131
 0.08678288430
 0.08691643707
 0.08705010966
 0.08718390209
 0.08731781440
 0.08745184662
 0.08758599877
 0.08772027089
 0.08785466301
 0.08798917516
 0.08812380737
 0.08825855967
 0.08839343209
 0.08852842467
 0.08866353742
 0.08879877039
 0.08893412360
 0.08906959709
 0.08920519088
 0.08934090500
 0.08947673949
 0.08961269438
 0.08974876969
 0.08988496546
 0.09002128171
 0.09015771849
 0.09029427581
 0.09043095371
 0.09056775222
 0.09070467137
 0.09084171118
 0.09097887170
 0.09111615295
 0.09125355496
 0.09139107776
 0.09152872138
 0.09166648586
 0.09180437121
 0.09194237748
 0.09208050469
 0.09221875287
 0.09235712206
 0.09249561228
 0.09263422356
 0.09277295594
 0.09291180944
 0.09305078409
 0.09318987993
 0.09332909699
 0.09346843529
 0.09360789486
 0.09374747574
 0.09388717795
 0.09402700153
 0.09416694650
 0.09430701290
 0.09444720076
 0.09458751010
 0.09472794095
 0.09486849336
 0.09500916733
 0.09514996292
 0.09529088014
 0.09543191902
 0.09557307960
 0.09571436191
 0.09585576597
 0.09599729182
 0.09613893948
 0.09628070899
 0.09642260038
 0.09656461367
 0.09670674889
 0.09684900608
 0.09699138527
 0.09713388648
 0.09727650974
 0.09741925509
 0.09756212256
 0.09770511217
 0.09784822395
 0.09799145794
 0.09813481416
 0.09827829264
 0.09842189342
 0.09856561652
 0.09870946198
 0.09885342981
 0.09899752006
 0.09914173275
 0.09928606791
 0.09943052558
 0.09957510577
 0.09971980853
 0.09986463388
 0.10000958184
 0.10015465246
 0.10029984575
 0.10044516176
 0.10059060050
 0.10073616202
 0.10088184632
 0.10102765346
 0.10117358346
 0.10131963634
 0.10146581213
 0.10161211088
 0.10175853259
 0.10190507732
 0.10205174507
 0.10219853589
 0.10234544981
 0.10249248684
 0.10263964703
 0.10278693040
 0.10293433698
 0.10308186680
 0.10322951989
 0.10337729628
 0.10352519600
 0.10367321908
 0.10382136554
 0.10396963543
 0.10411802875
 0.10426654556
 0.10441518586
 0.10456394971
 0.10471283711
 0.10486184811
 0.10501098273
 0.10516024100
 0.10530962295
 0.10545912862
 0.10560875802
 0.10575851119
 0.10590838816
 0.10605838895
 0.10620851360
 0.10635876214
 0.10650913459
 0.10665963098
 0.10681025135
 0.10696099572
 0.10711186412
 0.10726285658
 0.10741397313
 0.10756521380
 0.10771657861
 0.10786806761
 0.10801968081
 0.10817141824
 0.10832327994
 0.10847526593
 0.10862737624
 0.10877961090
 0.10893196995
 0.10908445340
 0.10923706129
 0.10938979365
 0.10954265051
 0.10969563189
 0.10984873782
 0.11000196834
 0.11015532347
 0.11030880324
 0.11046240768
 0.11061613681
 0.11076999068
 0.11092396930
 0.11107807271
 0.11123230094
 0.11138665400
 0.11154113194
 0.11169573478
 0.11185046255
 0.11200531528
 0.11216029299
 0.11231539572
 0.11247062350
 0.11262597635
 0.11278145430
 0.11293705739
 0.11309278563
 0.11324863906
 0.11340461771
 0.11356072161
 0.11371695078
 0.11387330526
 0.11402978507
 0.11418639024
 0.11434312080
 0.11449997677
 0.11465695820
 0.11481406510
 0.11497129750
 0.11512865544
 0.11528613894
 0.11544374803
 0.11560148274
 0.11575934310
 0.11591732913
 0.11607544087
 0.11623367834
 0.11639204157
 0.11655053059
 0.11670914543
 0.11686788612
 0.11702675269
 0.11718574515
 0.11734486356
 0.11750410792
 0.11766347827
 0.11782297464
 0.11798259706
 0.11814234555
 0.11830222015
 0.11846222088
 0.11862234777
 0.11878260084
 0.11894298014
 0.11910348568
 0.11926411749
 0.11942487561
 0.11958576006
 0.11974677087
 0.11990790806
 0.12006917167
 0.12023056172
 0.12039207825
 0.12055372128
 0.12071549083
 0.12087738695
 0.12103940965
 0.12120155896
 0.12136383491
 0.12152623754
 0.12168876686
 0.12185142291
 0.12201420572
 0.12217711531
 0.12234015170
 0.12250331494
 0.12266660505
 0.12283002205
 0.12299356598
 0.12315723686
 0.12332103472
 0.12348495959
 0.12364901149
 0.12381319046
 0.12397749652
 0.12414192971
 0.12430649004
 0.12447117755
 0.12463599226
 0.12480093421
 0.12496600342
 0.12513119992
 0.12529652373
 0.12546197489
